lib/img/icons/ui/media2.svg

<?xml version="1.0" encoding="utf-8"?>
<!-- Generated by IcoMoon.io -->
<!DOCTYPE svg PUBLIC "-//W3C//DTD SVG 1.1//EN" "http://www.w3.org/Graphics/SVG/1.1/DTD/svg11.dtd">
<svg version="1.1" xmlns="http://www.w3.org/2000/svg" xmlns:xlink="http://www.w3.org/1999/xlink" width="32" height="32" viewBox="0 0 32 32">
<path fill="rgb(0, 0, 0)" d="M30 6h-2v14h-10v6h4v4h-12v-4h4v-6h-10v-14h-2v-4h28v4zM24 16v-10h-16v10h16z"></path>
</svg>

<svg xmlns="http://www.w3.org/2000/svg" width="32" height="32" viewBox="0 0 32 32" class="svg-icon">
    <path d="M30 6h-2v14H18v6h4v4H10v-4h4v-6H4V6H2V2h28v4zm-6 10V6H8v10h16z"/>
</svg>
